X: 42342
T: Weep Not For What You Lost
R: reel
M: 4/4
K: Gmajor
DG~G2 AGFG|AcEc ABGE|DG~G2 AGFG|Addc AGGF|
DG~G2 AGFG|AcEc ABGE|DG~G2 A^cde|fdd=c AGBd|
~g3a gfdc|Afdc AGBd|~g3d (3efg ag|fdd^c defa|
g2gf gfd=c|Afdc AGGF|DG~G2 A^cde|fdd=c AGGF|

